X:1
T:Partition sans titre
C:Compositeur / Arrangeur
L:1/8
M:4/4
I:linebreak $
K:G
V:1 treble nm="Violon" snm="Vln."
V:1
"Am" E2 A2 A2 (3Bcd | e3 d c3 A |"G" B2 G2 GFGA | B2 AG E2 D2 |"Am" E2 A2 A2 (3Bcd | e2 ed e2 ag | %6
 e3 d"G" BedB |1"Am" A4 A3 G :|2"Am" A4 A4 |:"Am" a3 g e2 fg | abag e2 fg | a3 f"G" g3 e | %12
 d2 B2 G4 |"Am" a3 g e2 fg | abag e3 d |"G" B2 e2 d2 B2 |1"Am" A4 A4 :|2"Am" A4 A3 G |] %18
